!!!COM: Bach, Johann Sebastian
!!!CDT: 1685/3//-1750/7/28/
!!!OTL@@DE: Wo Gott der Herr nicht bei uns haelt
!!!AGN: 4-Part Chorale
!!!SCT: BH 336
!!!SCT: BWV 258
**harm	**root	**kern	**kern	**kern	**kern
!	!	!bass	!tenor	!alto	!soprno
*	*Iorgan	*Iorgan	*Iorgan	*Iorgan	*Iorgan
*	*	*clefF4	*clefF2	*clefG2	*clefG2
*M4/4	*M4/4	*M4/4	*M4/4	*M4/4	*M4/4
*met(c)	*met(c)	*met(c)	*met(c)	*met(c)	*met(c)
*MM60	*MM60	*MM60	*MM60	*MM60	*MM60
*k[f#c#g#d#a#]	*k[f#c#g#d#a#]	*k[f#c#g#d#a#]	*k[f#c#g#d#a#]	*k[f#c#g#d#a#]	*k[f#c#g#d#a#]
*g#:	*g#:	*g#:	*g#:	*g#:	*g#:
*>[A,A,B]	*>[A,A,B]	*>[A,A,B]	*>[A,A,B]	*>[A,A,B]	*>[A,A,B]
*>A	*>A	*>A	*>A	*>A	*>A
i	4BB	4G#	4B	8d#	4b
.	.	.	.	8e	.
=1	=1	=1	=1	=1	=1
IIIb	4DD	4D#	4B	4f#	4b
VI	4GG	4E	4B	4e	8g#
.	.	.	.	.	8a#
IIIb	4DD	8D#	4B	4f#	8b
.	.	8C#	.	.	8cc#
III	4DD	4BB	4B	4f#	4dd#
=2	=2	=2	=2	=2	=2
V7b/-VII	4EE	4E#	4B	4g#	4cc#
V7/III	4AA	4F#	4A#	8f#	4cc#
.	.	.	.	8e	.
III;	4DD;	4BB;	4F#;	4d#;	4b;
viiob/-VII	4GG#	4GG#	4G#	4e#	4b
=3	=3	=3	=3	=3	=3
-VII	4AA	4FF#	4c#	4f#	4a#
iv	4EE	4C#	4c#	4e	8g#
.	.	.	.	.	8a#
i	4BB	8G#	8B	4d#	4b
.	.	8F#	8A#	.	.
iv	8EE	8E	4G#	8c#	8cc#
ic	8BB	8D#	.	8d#	8b
=4	=4	=4	=4	=4	=4
ii7Db	4CC#	4C#	4G#	4e	2a#
V7	4FF#	4D#	8F##	4d#	.
.	.	.	8c#	.	.
i	4BB	4GG#;	4B;	4d#;	4g#;
=:|!	=:|!	=:|!	=:|!	=:|!	=:|!
*>B	*>B	*>B	*>B	*>B	*>B
-VIIb	4AA	4AA#	4F#	4f#	4cc#
=5	=5	=5	=5	=5	=5
III	2DD	8BB	4F#	4f#	4dd#
.	.	8C#	.	.	.
.	.	8D#	8F#	4f#	4dd#
.	.	8E	8G#	.	.
-VII	4AA	4F#	4A#	8c#	8a#
.	.	.	.	8d#	8b
vii7o	4AA#	4F##	4A#	4e	4cc#
!!linebreak: 2
=6	=6	=6	=6	=6	=6
i	4BB	4G#	8B	4d#	4b
.	.	.	8A#	.	.
vii7o/V	4EE#	4C##	4G#	4e#	4b
V	4FF#	4D#;	4d#;	4f##;	4a#;
i	4BB	8G#	4d#	4g#	4b
.	.	8F#	.	.	.
=7	=7	=7	=7	=7	=7
V/-VII	2EE	8E#	4G#	8g#	4cc#
.	.	8D#	.	8f#	.
.	.	4C#	4c#	4e#	8g#
.	.	.	.	.	8a#
III	4DD	8D#	8F#	4d#	4b
.	.	8E#	8G#	.	.
-VII	4AA	4F#	4A#	4c#	4a#
=8	=8	=8	=8	=8	=8
V7b/IV	4BB	4BB#	4d#	4f#	4g#
V7/-VII	4EE	4C#	8c#	4e#	4g#
.	.	.	8B	.	.
-VII	4AA	4FF#;	4A#;	4c#;	4f#;
viiob/-VII	4GG#	4GG#	4B	4e#	4b
=9	=9	=9	=9	=9	=9
-VIIb	4AA	8AA#	4c#	4f#	4a#
.	.	8BB	.	.	.
V/-VII	4EE	4C#	4c#	8e#	8g#
.	.	.	.	8f##	8a#
i	4BB	8G#	4d#	4g#	4b
.	.	8F#	.	.	.
iv	8EE	8E	4G#	8g#	8cc#
ic	8BB	8D#	.	8d#	8b
=10	=10	=10	=10	=10	=10
ii7Db	4CC#	4C#	4G#	4e	2a#
V7	4FF#	4D#	4F##	8d#	.
.	.	.	.	8c#	.
i;	4BB;	4GG#;	4D#;	4B;	4g#;
==	==	==	==	==	==
*-	*-	*-	*-	*-	*-
!!chor2scor: -l 2 -s 0.6 -o %b.pmx
!!!YEC: Copyright 2003 by Craig Stuart Sapp
!!!license: GNU General Public License (http://www.gnu.org/copyleft/gpl.html)
!!!SMA: 371 Bach Chorales, edited by Ludwig Erk, C.F. Peters
!!!PDT: 1850, 1865
!!!ONB: Harmony and Root analysis done manually by Craig Sapp
